X: 20350
T: John Byrne's
R: jig
M: 6/8
K: Amixolydian
A^ce ed=c|BGB dBG|A=ce efg|d^cB A2E|
A^ce ed=c|BGB dBG|=cBc efg|d^cB A2E|
A^ce ed=c|BGB dBG|A=ce efg|d^cB AE^G|
A^ce ed=c|BGB dBG|=cBc efg|d^cB A2E|
|:Aaa {b}a^ga|baf =ged|eaa {b}a^ga|baf g2d|
eaa {b}a^ga|baf =ged|=cBc efg|d^cB A2E:|

